X:162
T:Stompin' At The Savoy
C: Razaf, Goodman, Webb and Sampson
N:TablEdited by Mike Stangeland
L:1/8
Q:1/4=140
M:4/4
K:C
z8 | zG Ae B2 GA | z8 | zG Ae B2 GA | z8 | zG Ac fA cB | z8 | z4 [c'2f2] A,2 | 
[f4c4] [e4B4] |: zG Ae B2 GA | z8 | zG Ae B2 GA | z8 | zG Ac fA cB | z8 | z8 | 
z8 | g2 f2 ^g^f z=g | z2 f6 | g2 f2 _b^g z2 | gf z6 | z8 | z8 | [fc]^g gg g4 | 
eg gg ze zg :| 


